kora/status/symbolic/weather-clear-symbolic.svg

<svg xmlns="http://www.w3.org/2000/svg" viewBox="0 0 16 16">
 <defs>
  <style id="current-color-scheme" type="text/css">
   .ColorScheme-Text { color:#dfdfdf; } .ColorScheme-Highlight { color:#4285f4; } .ColorScheme-NeutralText { color:#ff9800; } .ColorScheme-PositiveText { color:#4caf50; } .ColorScheme-NegativeText { color:#f44336; }
  </style>
 </defs>
  <path style="fill:currentColor;fill-opacity:0.3" class="ColorScheme-Text" d="m8 2c-3.31 0-6 2.68-6 6 0 3.31 2.69 6 6 6s6-2.69 6-6c0-3.32-2.69-6-6-6z"/>
  <path style="fill:currentColor;" class="ColorScheme-Text" d="m7.5 14.96.5 1.04.5-1.04c-.17.02-.33.04-.5.04s-.33-.02-.5-.04zm5.78-2.4c-.22.25-.47.5-.72.72l1.1.37zm-10.56 0-.38 1.09 1.1-.37c-.25-.22-.5-.47-.72-.72zm12.25-5.06c.01.16.03.33.03.5 0 .16-.02.33-.03.5l1.03-.5zm-13.94 0-1.03.5 1.03.5c-.01-.17-.03-.34-.03-.5 0-.17.02-.34.03-.5zm12.63-5.16-1.1.37c.25.22.5.47.72.72zm-11.32 0 .38 1.09c.22-.25.47-.5.72-.72zm5.66-2.34-.5 1.03c.17-.01.33-.03.5-.03s.33.02.5.03z"/>
</svg>

<svg style="clip-rule:evenodd;fill-rule:evenodd;stroke-linejoin:round;stroke-miterlimit:2" viewBox="0 0 16 16" xmlns="http://www.w3.org/2000/svg">
 <path d="m8 2c-3.31 0-6 2.68-6 6 0 3.31 2.69 6 6 6s6-2.69 6-6c0-3.32-2.69-6-6-6z" fill-opacity=".3" fill="#dfdfdf"/>
 <path d="M7.5,14.96L8,16L8.5,14.96C8.33,14.98 8.17,15 8,15C7.83,15 7.67,14.98 7.5,14.96ZM13.28,12.56C13.06,12.81 12.81,13.06 12.56,13.28L13.66,13.65L13.28,12.56ZM2.72,12.56L2.34,13.65L3.44,13.28C3.19,13.06 2.94,12.81 2.72,12.56ZM14.97,7.5C14.98,7.66 15,7.83 15,8C15,8.16 14.98,8.33 14.97,8.5L16,8L14.97,7.5ZM1.03,7.5L0,8L1.03,8.5C1.02,8.33 1,8.16 1,8C1,7.83 1.02,7.66 1.03,7.5ZM13.66,2.34L12.56,2.71C12.81,2.93 13.06,3.18 13.28,3.43L13.66,2.34ZM2.34,2.34L2.72,3.43C2.94,3.18 3.19,2.93 3.44,2.71L2.34,2.34ZM8,0L7.5,1.03C7.67,1.02 7.83,1 8,1C8.17,1 8.33,1.02 8.5,1.03L8,0Z" fill="#dfdfdf"/>
</svg>
